X:1806
T:Leith Country Dance
%
P:The Sailor's Wife
C:Niel Gow
R:Jig (8x32)
B:RSCDS 18-6
Z:Anselm Lingnau <anselm@strathspey.org>
M:6/8
L:1/8
K:Dm
E|"Dm"DEF E2D|d2e f2g|"F"agf edc|AcA "C7"GEC|
  "Dm"DEF E2D|d2e f2g|"F"agf "A7"ed^c|"D"d3 D2||
e|"F"f>ga fga|fga agf|"C"ecg ecg|ecg gfe|
  "F"f>ga agf|"C"efg gfe|"Dm"def "A7"ed^c|"D"d3 D2|]
%
P:the Sailor at the Bow
C:unknown
R:Jig
M:6/8
L:1/8
Z:Bruce Shawyer
K:D
  d \
| AFD DEF | GBG F2D \
|1 GBG AFD | CEE E2 \
:|2 FGA Bcd | AFD D2 ||
|: g \
| fdf ece | dAG F2D \
|1 GBG AFD | CEE E2 \
:|2 FGA Bcd | AFD D2 :|
